X: 1
T: Charlie Hunter's Jig
%T: Charlie Stuart's Jig
C: Bobby MacLeod
D: FR200 "Kitchen Junket"
D: Rounder 7004, Joe Cormier, "The Dances Down Home"
B: Bobby MacLeod's Selection of Country Dance Tunes
B: BSFC Tune Book XXVII-13
B: BSFC Session Tune Book 2016 p.51
R: jig
Z: John Chambers <jc:trillian.mit.edu>
M: 6/8
L: 1/8
K: D
   A2 \
| "D"DFA "G"GBd | "D"Adf "A7"a2g | "D"fed "Bm"Bcd | "A7"ecA GFE \
| "D"DFA "G"GBd | "D"Adf "A7"a2g | "D"fef "A7"gec | "D"edd d :|
|: fg \
| "D"afd dcd | "G"BGG G2F | "E7"E^GB efe | "A"cAA Aag \
| "D"fdA FDF | "G"GBd g2b | "D"fef "A7"gec | "D"edd d2 :|
